src/Static/Positions/ks-position-42.svg

<?xml version="1.0" encoding="UTF-8"?>
<svg width="110px" height="181px" viewBox="0 0 110 181" version="1.1" xmlns="http://www.w3.org/2000/svg" xmlns:xlink="http://www.w3.org/1999/xlink">
    <title>sex-etsy-42</title>
    <defs>
        <path d="M18.5195755,49.3053769 C19.4747653,48.8811853 20.4871423,48.6661608 21.5280771,48.6661608 C24.4208479,48.6661608 27.0548842,50.3511422 28.2401792,52.9588868 L31.2371148,59.5568976 C31.3029407,59.3031307 31.3720508,59.0406132 31.4356635,58.7922095 C33.869509,51.8916684 31.6585577,43.3530745 25.65719,41.5235673 C19.654323,39.6953304 10.6515218,42.483591 6.49028128,52.6068875 C0.851598678,66.5587761 -0.704091998,75.7562043 0.272016443,91.5093724 C0.512545212,93.2311203 0.895292239,94.7261294 1.39020035,96.0315189 C1.75324244,97.4966771 2.49282021,98.8908427 3.62935256,100.054106 L30.1189309,127.166731 L19.6133425,164.83235 C18.3032496,169.528943 21.093212,174.386082 25.8446725,175.680957 C26.6384389,175.897322 27.4364175,176 28.2218307,176 C32.1370451,176 35.7286986,173.433609 36.8198953,169.521251 L48.6788418,127.003999 C49.5175868,123.997256 48.687195,120.775418 46.4951633,118.531528 L25.5971471,97.1415022 C25.6419116,96.4009488 25.6631872,95.5943425 25.6593319,94.7098985 C25.3705403,91.0829226 25.5498124,87.300765 26.000313,83.5201599 L14.8229718,58.9133768 C13.1628306,55.2572559 14.8208299,50.9469582 18.5195755,49.3053769 Z" id="path-1"></path>
        <filter x="-16.3%" y="-4.4%" width="132.6%" height="111.9%" filterUnits="objectBoundingBox" id="filter-2">
            <feMorphology radius="1" operator="dilate" in="SourceAlpha" result="shadowSpreadOuter1"></feMorphology>
            <feOffset dx="0" dy="2" in="shadowSpreadOuter1" result="shadowOffsetOuter1"></feOffset>
            <feGaussianBlur stdDeviation="2" in="shadowOffsetOuter1" result="shadowBlurOuter1"></feGaussianBlur>
            <feComposite in="shadowBlurOuter1" in2="SourceAlpha" operator="out" result="shadowBlurOuter1"></feComposite>
            <feColorMatrix values="0 0 0 0 0   0 0 0 0 0   0 0 0 0 0  0 0 0 0.5 0" type="matrix" in="shadowBlurOuter1"></feColorMatrix>
        </filter>
        <ellipse id="path-3" cx="31.9942533" cy="22.4278405" rx="16.0091281" ry="16.0148203"></ellipse>
        <filter x="-25.0%" y="-18.7%" width="150.0%" height="150.0%" filterUnits="objectBoundingBox" id="filter-4">
            <feMorphology radius="1" operator="dilate" in="SourceAlpha" result="shadowSpreadOuter1"></feMorphology>
            <feOffset dx="0" dy="2" in="shadowSpreadOuter1" result="shadowOffsetOuter1"></feOffset>
            <feGaussianBlur stdDeviation="2" in="shadowOffsetOuter1" result="shadowBlurOuter1"></feGaussianBlur>
            <feComposite in="shadowBlurOuter1" in2="SourceAlpha" operator="out" result="shadowBlurOuter1"></feComposite>
            <feColorMatrix values="0 0 0 0 0   0 0 0 0 0   0 0 0 0 0  0 0 0 0.5 0" type="matrix" in="shadowBlurOuter1"></feColorMatrix>
        </filter>
        <path d="M68.1876452,58.6861829 C68.5458171,58.6245135 68.9110644,58.5931011 69.2727017,58.5931011 C72.3706972,58.5931011 75.0005639,60.8126934 75.5265228,63.8711769 L79.1670104,85.0265188 C82.8290851,84.6140417 84.9077238,80.4756218 85.0851853,77.1459085 C85.6122271,76.993757 86,76.5131835 86,75.9370731 C86,75.2390681 85.4343325,74.6733562 84.7365435,74.6733562 C84.6560432,74.6733562 84.5778533,74.6825994 84.5015405,74.6970419 C83.5565472,73.1423091 81.5744366,70.8113654 79.5526174,68.5896067 C78.4508111,66.1399458 76.9361071,62.9625284 78.9521506,56.7998508 C74.8380473,51.3999527 67.3148495,49.7916383 60.9200266,55.9967768 C60.4440284,58.7578176 59.5250984,61.3583302 57.6553271,63.3939253 C57.2079191,63.88107 56.7605111,64.3053178 56.3140416,64.7021249 C55.2650839,68.9600563 54.3532293,74.0414978 49,80.950346 L61.2088889,86.1466774 C63.3697606,87.0663745 64.8669205,88.8963086 65.4539585,91 C65.919849,90.2837253 66.4141854,89.554669 66.9259936,88.8186081 L63.0033582,66.0265724 C62.4097502,62.5732314 64.7350156,59.2802742 68.1876452,58.6861829 Z" id="path-5"></path>
        <filter x="-21.1%" y="-14.1%" width="141.3%" height="140.6%" filterUnits="objectBoundingBox" id="filter-6">
            <feMorphology radius="0.5" operator="dilate" in="SourceAlpha" result="shadowSpreadOuter1"></feMorphology>
            <feOffset dx="0" dy="2" in="shadowSpreadOuter1" result="shadowOffsetOuter1"></feOffset>
            <feGaussianBlur stdDeviation="2" in="shadowOffsetOuter1" result="shadowBlurOuter1"></feGaussianBlur>
            <feComposite in="shadowBlurOuter1" in2="SourceAlpha" operator="out" result="shadowBlurOuter1"></feComposite>
            <feColorMatrix values="0 0 0 0 0   0 0 0 0 0   0 0 0 0 0  0 0 0 0.5 0" type="matrix" in="shadowBlurOuter1"></feColorMatrix>
        </filter>
        <path d="M54.8077724,99.3723812 L37.2337105,92 C33.9979942,95.4354003 33.4465666,98.7578737 34.4589385,101.713139 C34.7014799,103.195367 35.3910174,104.62081 36.5422218,105.770955 L62.0957226,131.299631 L53.4938138,168.870733 C52.5709856,172.900691 55.1371836,176.9055 59.225047,177.8149 C59.7878934,177.940152 60.3493666,178 60.9030346,178 C64.3715357,178 67.5023146,175.639935 68.2980904,172.164565 L77.8136489,130.603189 C78.3828552,128.117159 77.6290688,125.515708 75.8127546,123.701824 L57.3297406,105.237099 C57.9834316,103.558371 58.7714021,101.698319 59.7468435,99.6800269 C59.0974164,99.8606387 58.4174188,99.9596724 57.7197148,99.9596724 C56.7161599,99.9596011 55.7365991,99.7619613 54.8077724,99.3723812 Z" id="path-7"></path>
        <filter x="-17.0%" y="-6.5%" width="134.1%" height="117.6%" filterUnits="objectBoundingBox" id="filter-8">
            <feMorphology radius="0.5" operator="dilate" in="SourceAlpha" result="shadowSpreadOuter1"></feMorphology>
            <feOffset dx="0" dy="2" in="shadowSpreadOuter1" result="shadowOffsetOuter1"></feOffset>
            <feGaussianBlur stdDeviation="2" in="shadowOffsetOuter1" result="shadowBlurOuter1"></feGaussianBlur>
            <feComposite in="shadowBlurOuter1" in2="SourceAlpha" operator="out" result="shadowBlurOuter1"></feComposite>
            <feColorMatrix values="0 0 0 0 0   0 0 0 0 0   0 0 0 0 0  0 0 0 0.5 0" type="matrix" in="shadowBlurOuter1"></feColorMatrix>
        </filter>
        <path d="M61.5504484,86.1159614 L38.6192974,76.3582072 L27.8389693,52.3476212 C26.5569598,49.4927333 23.2029493,48.2163297 20.3476869,49.4986134 C17.4917161,50.780968 16.2166494,54.1349547 17.4986589,56.990551 L29.1880689,83.0258701 C29.7719726,84.3275652 30.8263574,85.3608309 32.1387593,85.9195099 L57.1115897,96.5461707 C57.8359789,96.8544147 58.5879977,97 59.3282561,97 C61.5324538,97 63.6287546,95.7062395 64.5461253,93.5501608 C65.771388,90.6699815 64.4306481,87.3415696 61.5504484,86.1159614 Z" id="path-9"></path>
        <filter x="-16.7%" y="-12.5%" width="133.3%" height="133.3%" filterUnits="objectBoundingBox" id="filter-10">
            <feMorphology radius="1" operator="dilate" in="SourceAlpha" result="shadowSpreadOuter1"></feMorphology>
            <feOffset dx="0" dy="2" in="shadowSpreadOuter1" result="shadowOffsetOuter1"></feOffset>
            <feGaussianBlur stdDeviation="2" in="shadowOffsetOuter1" result="shadowBlurOuter1"></feGaussianBlur>
            <feComposite in="shadowBlurOuter1" in2="SourceAlpha" operator="out" result="shadowBlurOuter1"></feComposite>
            <feColorMatrix values="0 0 0 0 0   0 0 0 0 0   0 0 0 0 0  0 0 0 0.5 0" type="matrix" in="shadowBlurOuter1"></feColorMatrix>
        </filter>
        <path d="M61,39.4219135 C60.8120954,38.4607665 60.7087221,37.4724087 60.7087221,36.4613293 C60.7087221,35.6249096 60.7768495,34.8032004 60.9064541,34 C55.3606463,35.2391939 49.1487119,38.7906795 49.7079183,50.5649897 C50.2575188,62.1363243 46.1207366,64.0573752 42.7650551,63.983478 C39.4094475,63.9095808 47.7280854,69.716036 55.3596118,61.95241 C61.2388893,55.9714331 56.7768393,43.2270668 61,39.4219135 Z" id="path-11"></path>
        <filter x="-39.8%" y="-17.6%" width="179.5%" height="147.3%" filterUnits="objectBoundingBox" id="filter-12">
            <feMorphology radius="0.5" operator="dilate" in="SourceAlpha" result="shadowSpreadOuter1"></feMorphology>
            <feOffset dx="0" dy="2" in="shadowSpreadOuter1" result="shadowOffsetOuter1"></feOffset>
            <feGaussianBlur stdDeviation="2" in="shadowOffsetOuter1" result="shadowBlurOuter1"></feGaussianBlur>
            <feComposite in="shadowBlurOuter1" in2="SourceAlpha" operator="out" result="shadowBlurOuter1"></feComposite>
            <feColorMatrix values="0 0 0 0 0   0 0 0 0 0   0 0 0 0 0  0 0 0 0.5 0" type="matrix" in="shadowBlurOuter1"></feColorMatrix>
        </filter>
        <circle id="path-13" cx="79.5" cy="35.5" r="15.5"></circle>
        <filter x="-24.2%" y="-17.7%" width="148.4%" height="148.4%" filterUnits="objectBoundingBox" id="filter-14">
            <feMorphology radius="0.5" operator="dilate" in="SourceAlpha" result="shadowSpreadOuter1"></feMorphology>
            <feOffset dx="0" dy="2" in="shadowSpreadOuter1" result="shadowOffsetOuter1"></feOffset>
            <feGaussianBlur stdDeviation="2" in="shadowOffsetOuter1" result="shadowBlurOuter1"></feGaussianBlur>
            <feComposite in="shadowBlurOuter1" in2="SourceAlpha" operator="out" result="shadowBlurOuter1"></feComposite>
            <feColorMatrix values="0 0 0 0 0   0 0 0 0 0   0 0 0 0 0  0 0 0 0.5 0" type="matrix" in="shadowBlurOuter1"></feColorMatrix>
        </filter>
        <path d="M98.7624082,100.500058 L77.5140559,87.7439323 L73.3063765,63.8108979 C72.8677205,61.3135016 70.4463167,59.6363829 67.8925374,60.0675916 C65.34157,60.4973885 63.6299178,62.8703421 64.0685737,65.3673855 L68.6367528,91.3476199 C68.8655979,92.6490809 69.6563178,93.790524 70.8060953,94.4805708 L93.8632905,108.322376 C94.6272613,108.781466 95.4728492,109 96.3086315,109 C97.8843753,109 99.4235645,108.221439 100.307942,106.809723 C101.661186,104.649373 100.969026,101.8246 98.7624082,100.500058 Z" id="path-15"></path>
        <filter x="-20.3%" y="-11.2%" width="140.5%" height="130.6%" filterUnits="objectBoundingBox" id="filter-16">
            <feMorphology radius="0.5" operator="dilate" in="SourceAlpha" result="shadowSpreadOuter1"></feMorphology>
            <feOffset dx="0" dy="2" in="shadowSpreadOuter1" result="shadowOffsetOuter1"></feOffset>
            <feGaussianBlur stdDeviation="2" in="shadowOffsetOuter1" result="shadowBlurOuter1"></feGaussianBlur>
            <feComposite in="shadowBlurOuter1" in2="SourceAlpha" operator="out" result="shadowBlurOuter1"></feComposite>
            <feColorMatrix values="0 0 0 0 0   0 0 0 0 0   0 0 0 0 0  0 0 0 0.5 0" type="matrix" in="shadowBlurOuter1"></feColorMatrix>
        </filter>
    </defs>
    <g id="Page-2" stroke="none" stroke-width="1" fill="none" fill-rule="evenodd">
        <g id="sex-etsy-42" transform="translate(5.000000, -3.000000)" fill-rule="nonzero">
            <g id="Path">
                <use fill="black" fill-opacity="1" filter="url(#filter-2)" xlink:href="#path-1"></use>
                <use stroke="#1A1A1D" stroke-width="2" fill="#4E4E50" xlink:href="#path-1"></use>
            </g>
            <g id="Oval" transform="translate(31.994253, 22.427840) rotate(-34.896267) translate(-31.994253, -22.427840) ">
                <use fill="black" fill-opacity="1" filter="url(#filter-4)" xlink:href="#path-3"></use>
                <use stroke="#1A1A1D" stroke-width="2" fill="#4E4E50" xlink:href="#path-3"></use>
            </g>
            <g id="Path">
                <use fill="black" fill-opacity="1" filter="url(#filter-6)" xlink:href="#path-5"></use>
                <use stroke="#1A1A1D" stroke-width="1" fill="#6F2232" xlink:href="#path-5"></use>
            </g>
            <g id="Path">
                <use fill="black" fill-opacity="1" filter="url(#filter-8)" xlink:href="#path-7"></use>
                <use stroke="#1A1A1D" stroke-width="1" fill="#6F2232" xlink:href="#path-7"></use>
            </g>
            <g id="Path">
                <use fill="black" fill-opacity="1" filter="url(#filter-10)" xlink:href="#path-9"></use>
                <use stroke="#1A1A1D" stroke-width="2" fill="#4E4E50" xlink:href="#path-9"></use>
            </g>
            <g id="Path">
                <use fill="black" fill-opacity="1" filter="url(#filter-12)" xlink:href="#path-11"></use>
                <use stroke="#1A1A1D" stroke-width="1" fill="#6F2232" xlink:href="#path-11"></use>
            </g>
            <g id="Oval">
                <use fill="black" fill-opacity="1" filter="url(#filter-14)" xlink:href="#path-13"></use>
                <use stroke="#1A1A1D" stroke-width="1" fill="#6F2232" xlink:href="#path-13"></use>
            </g>
            <g id="Path">
                <use fill="black" fill-opacity="1" filter="url(#filter-16)" xlink:href="#path-15"></use>
                <use stroke="#1A1A1D" stroke-width="1" fill="#6F2232" xlink:href="#path-15"></use>
            </g>
        </g>
    </g>
</svg>

<svg xmlns="http://www.w3.org/2000/svg" width="110" height="181" xmlns:xlink="http://www.w3.org/1999/xlink"><title>sex-etsy-42</title><defs><path id="b" d="M18.52 49.3c.95-.42 1.97-.63 3-.63 2.9 0 5.53 1.68 6.72 4.3l3 6.6c.06-.27.13-.53.2-.78 2.43-6.9.22-15.45-5.78-17.28-6-1.82-15 .96-19.17 11.1C.84 66.55-.7 75.75.26 91.5.5 93.2.9 94.7 1.4 96c.35 1.48 1.1 2.87 2.23 4.03l26.5 27.12-10.52 37.66c-1.3 4.7 1.5 9.56 6.24 10.85.8.22 1.6.32 2.38.32 3.92 0 7.5-2.57 8.6-6.48L48.68 127c.84-3 0-6.22-2.18-8.47l-20.9-21.4c.04-.73.06-1.54.06-2.42-.3-3.62-.1-7.4.34-11.18l-11.18-24.6c-1.66-3.66 0-7.97 3.7-9.6z"/><filter id="a" width="132.6%" height="111.9%" x="-16.3%" y="-4.4%" filterUnits="objectBoundingBox"><feMorphology radius="1" operator="dilate" in="SourceAlpha" result="shadowSpreadOuter1"/><feOffset dy="2" in="shadowSpreadOuter1" result="shadowOffsetOuter1"/><feGaussianBlur stdDeviation="2" in="shadowOffsetOuter1" result="shadowBlurOuter1"/><feComposite in="shadowBlurOuter1" in2="SourceAlpha" operator="out" result="shadowBlurOuter1"/><feColorMatrix values="0 0 0 0 0 0 0 0 0 0 0 0 0 0 0 0 0 0 0.5 0" in="shadowBlurOuter1"/></filter><ellipse id="d" cx="31.994" cy="22.428" rx="16.009" ry="16.015"/><filter id="c" width="150%" height="150%" x="-25%" y="-18.7%" filterUnits="objectBoundingBox"><feMorphology radius="1" operator="dilate" in="SourceAlpha" result="shadowSpreadOuter1"/><feOffset dy="2" in="shadowSpreadOuter1" result="shadowOffsetOuter1"/><feGaussianBlur stdDeviation="2" in="shadowOffsetOuter1" result="shadowBlurOuter1"/><feComposite in="shadowBlurOuter1" in2="SourceAlpha" operator="out" result="shadowBlurOuter1"/><feColorMatrix values="0 0 0 0 0 0 0 0 0 0 0 0 0 0 0 0 0 0 0.5 0" in="shadowBlurOuter1"/></filter><path id="f" d="M68.2 58.7c.35-.08.7-.1 1.07-.1 3.1 0 5.73 2.2 6.26 5.27l3.64 21.16c3.66-.42 5.74-4.55 5.92-7.88.5-.16.9-.64.9-1.2 0-.7-.57-1.28-1.26-1.28-.08 0-.16 0-.24.03-.94-1.56-2.93-3.9-4.95-6.1-1.1-2.46-2.6-5.64-.6-11.8-4.1-5.4-11.64-7-18.03-.8-.48 2.76-1.4 5.36-3.26 7.4-.45.48-.9.9-1.35 1.3-1.03 4.26-1.95 9.34-7.3 16.25l12.2 5.2c2.17.92 3.67 2.75 4.25 4.85.47-.72.96-1.45 1.48-2.18L63 66.02c-.6-3.45 1.74-6.74 5.2-7.33z"/><filter id="e" width="141.3%" height="140.6%" x="-21.1%" y="-14.1%" filterUnits="objectBoundingBox"><feMorphology radius=".5" operator="dilate" in="SourceAlpha" result="shadowSpreadOuter1"/><feOffset dy="2" in="shadowSpreadOuter1" result="shadowOffsetOuter1"/><feGaussianBlur stdDeviation="2" in="shadowOffsetOuter1" result="shadowBlurOuter1"/><feComposite in="shadowBlurOuter1" in2="SourceAlpha" operator="out" result="shadowBlurOuter1"/><feColorMatrix values="0 0 0 0 0 0 0 0 0 0 0 0 0 0 0 0 0 0 0.5 0" in="shadowBlurOuter1"/></filter><path id="h" d="M54.8 99.37L37.24 92c-3.23 3.44-3.78 6.76-2.77 9.7.24 1.5.93 2.92 2.08 4.07L62.1 131.3l-8.6 37.57c-.93 4.03 1.64 8.04 5.73 8.94.56.14 1.12.2 1.67.2 3.47 0 6.6-2.36 7.4-5.84l9.5-41.56c.58-2.48-.17-5.08-2-6.9l-18.47-18.46c.65-1.68 1.44-3.54 2.42-5.56-.65.18-1.33.28-2.03.28-1 0-1.98-.2-2.9-.6z"/><filter id="g" width="134.1%" height="117.6%" x="-17%" y="-6.5%" filterUnits="objectBoundingBox"><feMorphology radius=".5" operator="dilate" in="SourceAlpha" result="shadowSpreadOuter1"/><feOffset dy="2" in="shadowSpreadOuter1" result="shadowOffsetOuter1"/><feGaussianBlur stdDeviation="2" in="shadowOffsetOuter1" result="shadowBlurOuter1"/><feComposite in="shadowBlurOuter1" in2="SourceAlpha" operator="out" result="shadowBlurOuter1"/><feColorMatrix values="0 0 0 0 0 0 0 0 0 0 0 0 0 0 0 0 0 0 0.5 0" in="shadowBlurOuter1"/></filter><path id="j" d="M61.55 86.12l-22.93-9.76-10.78-24c-1.28-2.87-4.64-4.14-7.5-2.86-2.85 1.28-4.12 4.63-2.84 7.5l11.7 26.03c.57 1.3 1.63 2.33 2.94 2.9L57.1 96.54c.74.3 1.5.45 2.23.45 2.2 0 4.3-1.3 5.22-3.45 1.22-2.88-.12-6.2-3-7.43z"/><filter id="i" width="133.3%" height="133.3%" x="-16.7%" y="-12.5%" filterUnits="objectBoundingBox"><feMorphology radius="1" operator="dilate" in="SourceAlpha" result="shadowSpreadOuter1"/><feOffset dy="2" in="shadowSpreadOuter1" result="shadowOffsetOuter1"/><feGaussianBlur stdDeviation="2" in="shadowOffsetOuter1" result="shadowBlurOuter1"/><feComposite in="shadowBlurOuter1" in2="SourceAlpha" operator="out" result="shadowBlurOuter1"/><feColorMatrix values="0 0 0 0 0 0 0 0 0 0 0 0 0 0 0 0 0 0 0.5 0" in="shadowBlurOuter1"/></filter><path id="l" d="M61 39.42c-.2-.96-.3-1.95-.3-2.96 0-.84.08-1.66.2-2.46-5.54 1.24-11.75 4.8-11.2 16.56.56 11.58-3.58 13.5-6.93 13.42-3.36-.07 4.96 5.74 12.6-2.03 5.87-5.98 1.4-18.72 5.63-22.53z"/><filter id="k" width="179.5%" height="147.3%" x="-39.8%" y="-17.6%" filterUnits="objectBoundingBox"><feMorphology radius=".5" operator="dilate" in="SourceAlpha" result="shadowSpreadOuter1"/><feOffset dy="2" in="shadowSpreadOuter1" result="shadowOffsetOuter1"/><feGaussianBlur stdDeviation="2" in="shadowOffsetOuter1" result="shadowBlurOuter1"/><feComposite in="shadowBlurOuter1" in2="SourceAlpha" operator="out" result="shadowBlurOuter1"/><feColorMatrix values="0 0 0 0 0 0 0 0 0 0 0 0 0 0 0 0 0 0 0.5 0" in="shadowBlurOuter1"/></filter><circle id="n" cx="79.5" cy="35.5" r="15.5"/><filter id="m" width="148.4%" height="148.4%" x="-24.2%" y="-17.7%" filterUnits="objectBoundingBox"><feMorphology radius=".5" operator="dilate" in="SourceAlpha" result="shadowSpreadOuter1"/><feOffset dy="2" in="shadowSpreadOuter1" result="shadowOffsetOuter1"/><feGaussianBlur stdDeviation="2" in="shadowOffsetOuter1" result="shadowBlurOuter1"/><feComposite in="shadowBlurOuter1" in2="SourceAlpha" operator="out" result="shadowBlurOuter1"/><feColorMatrix values="0 0 0 0 0 0 0 0 0 0 0 0 0 0 0 0 0 0 0.5 0" in="shadowBlurOuter1"/></filter><path id="p" d="M98.76 100.5L77.5 87.74 73.3 63.8c-.43-2.5-2.85-4.16-5.4-3.73-2.56.43-4.27 2.8-3.83 5.3l4.57 25.98c.23 1.3 1.02 2.44 2.17 3.13l23.06 13.84c.77.46 1.6.68 2.45.68 1.58 0 3.12-.78 4-2.2 1.36-2.15.67-4.98-1.54-6.3z"/><filter id="o" width="140.5%" height="130.6%" x="-20.3%" y="-11.2%" filterUnits="objectBoundingBox"><feMorphology radius=".5" operator="dilate" in="SourceAlpha" result="shadowSpreadOuter1"/><feOffset dy="2" in="shadowSpreadOuter1" result="shadowOffsetOuter1"/><feGaussianBlur stdDeviation="2" in="shadowOffsetOuter1" result="shadowBlurOuter1"/><feComposite in="shadowBlurOuter1" in2="SourceAlpha" operator="out" result="shadowBlurOuter1"/><feColorMatrix values="0 0 0 0 0 0 0 0 0 0 0 0 0 0 0 0 0 0 0.5 0" in="shadowBlurOuter1"/></filter></defs><g fill="none"><g fill-rule="nonzero"><g id="Path" transform="translate(5 -3)"><use fill="#000" filter="url(#a)" xlink:href="#b"/><use fill="#4E4E50" stroke="#1A1A1D" stroke-width="2" xlink:href="#b"/></g><g id="Oval" transform="translate(5 -3) rotate(-34.896 31.994 22.428)"><use fill="#000" filter="url(#c)" xlink:href="#d"/><use fill="#4E4E50" stroke="#1A1A1D" stroke-width="2" xlink:href="#d"/></g><g id="Path" transform="translate(5 -3)"><use fill="#000" filter="url(#e)" xlink:href="#f"/><use fill="#6F2232" stroke="#1A1A1D" xlink:href="#f"/></g><g id="Path" transform="translate(5 -3)"><use fill="#000" filter="url(#g)" xlink:href="#h"/><use fill="#6F2232" stroke="#1A1A1D" xlink:href="#h"/></g><g id="Path" transform="translate(5 -3)"><use fill="#000" filter="url(#i)" xlink:href="#j"/><use fill="#4E4E50" stroke="#1A1A1D" stroke-width="2" xlink:href="#j"/></g><g id="Path" transform="translate(5 -3)"><use fill="#000" filter="url(#k)" xlink:href="#l"/><use fill="#6F2232" stroke="#1A1A1D" xlink:href="#l"/></g><g transform="translate(5 -3)"><use fill="#000" filter="url(#m)" xlink:href="#n"/><use fill="#6F2232" stroke="#1A1A1D" xlink:href="#n"/></g><g transform="translate(5 -3)"><use fill="#000" filter="url(#o)" xlink:href="#p"/><use fill="#6F2232" stroke="#1A1A1D" xlink:href="#p"/></g></g></g></svg>
